X:1
T:False Lover Won Back or Bonnie Love
M:4/4
L:1/8
K:D
 z6 A,2| D3 C B,2 D2| E2C-B, A,3 A,| D2E-FG-F E2| D6 z A,| D3 C B,2 D2|\
 E2 C2 A,3 A,| D2E-F GF E2| D2 A, G, F,3 A,|A,-DE-F GF E2| D4 z4|
